X:1
T:Durfee, 88.88.88
T:Walter Stillman Martin, 1922
T:Durfee, 88.88.88
T:Public Domain
C:Walter Stillman Martin, 1922
Z:Public Domain
%%score ( 1 2 ) ( 3 4 )
L:1/8
M:4/4
K:D
V:1 treble 
V:2 treble 
V:3 bass 
V:4 bass 
V:1
 F2 | F2 [EA]2 D2 [CF]2 | B,2 [A,C]2 [A,D]3 [A,D] | [DG]2 [DF]2 [DB]2 [DA]2 | %4
 (EA,)(DA,) [CE]3 [CE] | [CE]2 [DF]2 [EG]2 [FB]2 | [GB]2 ([FA][EG]) [DF]3 [CE] | %7
 [DF]2 [EA]2 [Fd]2 [FB]2 | [EA]2 (ED) [CA]2 A2 | [Ae]2 [Ac]2 [Ad]2 [FA]2 | [EG]2 [CA]2 [DF]3 [DF] | %11
 [^DB]2 [DF]2 (AG)(FE) | [A,D]2 [A,C]2 D2 |] %13
V:2
 F2 | F2 D2 x4 | B,2 x6 | x8 | G2 F2 x4 | x8 | x8 | x8 | x2 ^G2 x A2 x | x8 | x8 | x4 B,2 B,2 | %12
 x4 D2 |] %13
V:3
 [D,D]2 | [D,D]2 [D,C]2 [D,B,]2 [D,A,]2 | [D,G,]2 [D,E,]2 [D,F,]3 [D,F,] | %3
 [D,B,]2 [D,A,]2 [D,G,]2 [D,F,]2 | [E,A,]2 [D,A,]2 [A,,A,]3 A, | [G,A,]2 [F,A,]2 [E,G,]2 [D,F,]2 | %6
 [C,E,]2 (A,,C,) [D,A,]3 [A,,A,] | [D,A,]2 [C,A,]2 [B,,B,]2 [D,B,]2 | [E,C]2 [E,B,]2 [A,,A,]2 A,2 | %9
 [G,C]2 [G,E]2 [F,D]2 [F,D]2 | [E,A,]2 [A,,A,]2 [D,A,]3 [D,A,] | [B,,B,]2 [B,,B,]2 E,2 (A,G,) | %12
 [A,,F,]2 (E,G,) [D,F,]2 |] %13
V:4
 x2 | x8 | x8 | x8 | x7 A, | x8 | x2 A,2 x4 | x8 | x6 A,2 | x8 | x8 | x4 E,2 G,,2 | x2 A,,2 x2 |] %13

